packages/vibrant-icons/assets/icons/Sparkle/Thin.svg

<svg width="24" height="24" viewBox="0 0 24 24" fill="none" xmlns="http://www.w3.org/2000/svg">
<path d="M5.27683 2.7476C5.47657 3.73103 6.74484 5.16095 7.50688 5.44852C7.63606 5.49727 7.75 5.61193 7.75 5.75C7.75 5.88807 7.63606 6.00273 7.50688 6.05148C6.74484 6.33905 5.47657 7.76897 5.27683 8.7524C5.24935 8.88771 5.13807 9 5 9C4.86193 9 4.75065 8.88771 4.72317 8.7524C4.52343 7.76897 3.25516 6.33905 2.49312 6.05148C2.36394 6.00273 2.25 5.88807 2.25 5.75C2.25 5.61193 2.36394 5.49727 2.49312 5.44852C3.25516 5.16095 4.52343 3.73103 4.72317 2.7476C4.75065 2.61229 4.86193 2.5 5 2.5C5.13807 2.5 5.24935 2.61229 5.27683 2.7476Z" fill="#0C0C0C"/>
<path d="M5.26112 14.7497C5.42591 16.6105 7.38631 18.2904 8.75124 18.4819C8.88797 18.501 9 18.6119 9 18.75C9 18.8881 8.88797 18.999 8.75124 19.0181C7.38631 19.2096 5.42591 20.8895 5.26112 22.7503C5.24894 22.8878 5.13807 23 5 23C4.86193 23 4.75106 22.8878 4.73888 22.7503C4.57409 20.8895 2.61369 19.2096 1.24876 19.0181C1.11203 18.999 1 18.8881 1 18.75C1 18.6119 1.11203 18.501 1.24876 18.4819C2.61369 18.2904 4.57409 16.6105 4.73888 14.7497C4.75106 14.6122 4.86193 14.5 5 14.5C5.13807 14.5 5.24894 14.6122 5.26112 14.7497Z" fill="#0C0C0C"/>
<path fill-rule="evenodd" clip-rule="evenodd" d="M13.865 2.46205C13.797 2.83719 13.7045 3.21007 13.5902 3.57854C12.5561 6.91321 9.74192 9.88584 7.20255 10.8895C7.08461 10.9361 6.96727 10.9784 6.85072 11.0164C6.53148 11.1204 6.21822 11.1913 5.9152 11.2258C5.85942 11.2321 5.80399 11.2373 5.74893 11.2411C5.6112 11.2508 5.5 11.3619 5.5 11.5V12.0339C5.5 12.158 5.58973 12.2624 5.7116 12.2859C5.74886 12.293 5.7863 12.3006 5.8239 12.3087C6.13021 12.3746 6.44756 12.4713 6.77147 12.5963C6.8973 12.6449 7.02413 12.6977 7.15169 12.7547C9.70294 13.894 12.5464 16.6838 13.5887 19.9527C13.7025 20.3097 13.7948 20.6724 13.863 21.0393C13.9351 21.4277 13.9801 21.8208 13.9948 22.2168C13.9952 22.2278 13.9955 22.2388 13.9959 22.2498C14.0004 22.3878 14.1119 22.5 14.25 22.5H14.75C14.8881 22.5 14.9996 22.3878 15.0041 22.2498C15.0045 22.2388 15.0048 22.2278 15.0052 22.2168C15.0199 21.8208 15.0649 21.4277 15.137 21.0393C15.2052 20.6724 15.2975 20.3097 15.4113 19.9527C16.4536 16.6838 19.2971 13.894 21.8483 12.7547C21.9759 12.6977 22.1027 12.6449 22.2285 12.5963C22.5524 12.4713 22.8698 12.3746 23.1761 12.3087C23.2137 12.3006 23.2511 12.293 23.2884 12.2859C23.4103 12.2624 23.5 12.158 23.5 12.0339V11.5C23.5 11.3619 23.3888 11.2508 23.2511 11.2411C23.196 11.2373 23.1406 11.2321 23.0848 11.2258C22.7818 11.1913 22.4685 11.1204 22.1493 11.0164C22.0327 10.9784 21.9154 10.9361 21.7975 10.8895C19.2581 9.88584 16.4439 6.91321 15.4098 3.57854C15.2955 3.21007 15.203 2.83719 15.135 2.46205C15.064 2.07055 15.0197 1.6766 15.0052 1.28266C15.0048 1.27173 15.0044 1.2608 15.0041 1.24987C14.9996 1.11187 14.8881 1 14.75 1H14.25C14.1119 1 14.0004 1.11187 13.9959 1.24987C13.9956 1.2608 13.9952 1.27173 13.9948 1.28266C13.9803 1.6766 13.936 2.07055 13.865 2.46205ZM14.5 5.98987C15.0759 7.15048 15.8096 8.21649 16.6111 9.13485C17.5338 10.192 18.6377 11.1552 19.8171 11.8556C18.6802 12.5537 17.5898 13.4705 16.651 14.5067C15.8357 15.4066 15.0865 16.4497 14.5 17.5959C13.9135 16.4497 13.1643 15.4066 12.349 14.5067C11.4102 13.4705 10.3198 12.5537 9.18289 11.8556C10.3623 11.1552 11.4662 10.192 12.3889 9.13485C13.1904 8.21649 13.9241 7.15048 14.5 5.98987Z" fill="#0C0C0C"/>
</svg>

<svg xmlns="http://www.w3.org/2000/svg" width="24" height="24" fill="none"><path fill="#0C0C0C" d="M5.277 2.748c.2.983 1.468 2.413 2.23 2.7.13.05.243.164.243.302s-.114.253-.243.301c-.762.288-2.03 1.718-2.23 2.701C5.249 8.888 5.138 9 5 9s-.25-.112-.277-.248c-.2-.983-1.468-2.413-2.23-2.7-.13-.05-.243-.164-.243-.302s.114-.253.243-.301c.762-.288 2.03-1.718 2.23-2.701.028-.136.139-.248.277-.248s.25.112.277.248M5.261 14.75c.165 1.86 2.125 3.54 3.49 3.732.137.019.249.13.249.268s-.112.249-.249.268c-1.365.192-3.325 1.872-3.49 3.732A.27.27 0 0 1 5 23a.27.27 0 0 1-.261-.25c-.165-1.86-2.125-3.54-3.49-3.732C1.112 19 1 18.888 1 18.75s.112-.249.249-.268c1.365-.192 3.325-1.872 3.49-3.732A.27.27 0 0 1 5 14.5c.138 0 .249.112.261.25"/><path fill="#0C0C0C" fill-rule="evenodd" d="M13.865 2.462q-.102.563-.275 1.117c-1.034 3.334-3.848 6.307-6.387 7.31a6 6 0 0 1-.352.127 4.8 4.8 0 0 1-1.102.225.264.264 0 0 0-.249.259v.534c0 .124.09.228.212.252l.112.023q.46.1.947.287.19.073.38.159c2.552 1.139 5.395 3.929 6.438 7.198q.172.536.274 1.086.109.584.132 1.178v.033c.005.138.117.25.255.25h.5c.138 0 .25-.112.254-.25l.001-.033q.023-.595.132-1.178.103-.551.274-1.086c1.043-3.27 3.886-6.059 6.437-7.198q.192-.085.38-.159a6.4 6.4 0 0 1 1.06-.31.26.26 0 0 0 .212-.252V11.5a.264.264 0 0 0-.249-.259l-.166-.015a4.8 4.8 0 0 1-.936-.21 6 6 0 0 1-.352-.127c-2.539-1.003-5.353-3.976-6.387-7.31a10 10 0 0 1-.275-1.117 8 8 0 0 1-.13-1.212.256.256 0 0 0-.255-.25h-.5a.256.256 0 0 0-.254.25l-.001.033a8 8 0 0 1-.13 1.18M14.5 5.99a15 15 0 0 0 2.111 3.145c.923 1.057 2.027 2.02 3.206 2.72a14.8 14.8 0 0 0-3.166 2.652c-.815.9-1.565 1.943-2.151 3.089a14.4 14.4 0 0 0-2.151-3.09 14.8 14.8 0 0 0-3.166-2.65c1.18-.7 2.283-1.664 3.206-2.721A15 15 0 0 0 14.5 5.99" clip-rule="evenodd"/></svg>
